build/category/MetroOutline.svg

<svg xmlns="http://www.w3.org/2000/svg" fill="none" viewBox="0 0 24 24" focusable="false"><path d="M0 0H24V24H0z"/><path fill="#74767B" fill-rule="evenodd" d="M17.89 19.4031C19.6193 17.8114 20.7 15.5328 20.7 13C20.7 8.19512 16.8049 4.3 12 4.3C7.19512 4.3 3.3 8.19512 3.3 13C3.3 15.5328 4.38069 17.8114 6.11004 19.4031C6.30031 19.5782 6.60494 19.7 7.00043 19.7L16.9996 19.7C17.3951 19.7 17.6997 19.5782 17.89 19.4031ZM18.7703 20.3596C18.2921 20.7998 17.6495 21 16.9996 21L7.00043 21C6.35045 21 5.70789 20.7998 5.22965 20.3596C3.2441 18.5321 2 15.9113 2 13C2 7.47715 6.47715 3 12 3C17.5228 3 22 7.47715 22 13C22 15.9113 20.7559 18.5321 18.7703 20.3596ZM16.6502 10.0576C16.6502 9.11873 15.8891 8.35762 14.9502 8.35762L9.0498 8.35762C8.11092 8.35762 7.3498 9.11873 7.3498 10.0576L7.3498 12.3299L16.6502 12.3299L16.6502 10.0576ZM16.5983 15.7887L15.6372 15.7887C15.2782 15.7887 14.9872 15.4977 14.9872 15.1387C14.9872 14.7797 15.2782 14.4887 15.6372 14.4887L16.6502 14.4887L16.6502 13.6299L7.3498 13.6299L7.3498 14.4887L8.36621 14.4887C8.7252 14.4887 9.01621 14.7797 9.01621 15.1387C9.01621 15.4977 8.7252 15.7887 8.36621 15.7887L7.40172 15.7887C7.58818 16.5252 8.25535 17.0701 9.0498 17.0701L14.9502 17.0701C15.7446 17.0701 16.4118 16.5252 16.5983 15.7887ZM17.9502 12.3299L17.9502 15.3701C17.9502 17.027 16.607 18.3701 14.9502 18.3701L9.0498 18.3701C7.39295 18.3701 6.0498 17.027 6.0498 15.3701L6.0498 12.3299L6.0498 10.0576C6.0498 8.40076 7.39295 7.05762 9.0498 7.05762L14.9502 7.05762C16.607 7.05762 17.9502 8.40076 17.9502 10.0576L17.9502 12.3299Z"/></svg>

<svg xmlns="http://www.w3.org/2000/svg" fill="none" viewBox="0 0 24 24" focusable="false"><path fill="#74767B" fill-rule="evenodd" d="M17.88 19.4A8.68 8.68 0 0 0 20.7 13c0-4.81-3.9-8.71-8.7-8.71-4.81 0-8.7 3.9-8.7 8.71 0 2.53 1.08 4.81 2.81 6.4.19.17.49.3.89.3h9.99c.4 0 .7-.13.89-.3m.89.95c-.48.44-1.13.65-1.78.65H7c-.65 0-1.3-.21-1.78-.65A9.95 9.95 0 0 1 2 13C2 7.47 6.47 3 12 3c5.52 0 10 4.47 10 10 0 2.91-1.25 5.53-3.23 7.35m-2.12-10.3c0-.94-.77-1.7-1.7-1.7H9.04c-.93 0-1.7.76-1.7 1.7v2.27h9.31zm-.06 5.73h-.96c-.36 0-.65-.29-.65-.65s.29-.65.65-.65h1.02v-.86H7.34v.86h1.02c.36 0 .65.29.65.65s-.29.65-.65.65H7.4c.18.74.85 1.29 1.64 1.29h5.91c.79 0 1.46-.55 1.64-1.29m1.36-3.46v3.05c0 1.65-1.35 3-3 3H9.04c-1.65 0-3-1.35-3-3v-5.32c0-1.65 1.35-3 3-3h5.91c1.65 0 3 1.35 3 3z"/></svg>
